Adwaita++/apps/16/de.haeckerfelix.Remotely.svg

<svg height="16" width="16" xmlns="http://www.w3.org/2000/svg">
  <g fill="#444">
    <path d="m8 2h1c2.773268 0 5 2.2267317 5 5v1h2v-1c0-3.8541485-3.145851-7-7-7h-1z"/>
    <path d="m8 6h1c.5641294 0 1 .4358706 1 1v1h2v-1c0-1.6450096-1.35499-3-3-3h-1z"/>
    <path d="m5.9511719 6.2207031c-.2556191 0-.5111627.0971-.7070313.2929688l-4.95117185 4.9492191c-.39173716.391737-.39173716 1.022325 0 1.414062l2.83007815 2.830078c.3917371.391737 1.0223253.391737 1.4140625 0l4.9492187-4.951172c.3917372-.391737.3917372-1.022325 0-1.4140621l-2.828125-2.828125c-.1958686-.1958686-.4514121-.2929688-.7070312-.2929688zm.0488281 1.7792969c.5522847 0 1 .4477153 1 1s-.4477153 1-1 1-1-.4477153-1-1 .4477153-1 1-1z"/>
  </g>
</svg>

<svg xmlns="http://www.w3.org/2000/svg" width="16" height="16" version="1.1">
 <title id="title9167">
  Gnome Symbolic Icon Theme
 </title>
 <path fill="#444" d="m 8,2 h 1 c 2.773268,0 5,2.2267317 5,5 v 1 l 2,0 V 7 C 16,3.1458515 12.854149,0 9,0 L 8,0 Z"/>
 <path fill="#444" d="m 8,6 h 1 c 0.5641294,0 1,0.4358706 1,1 v 1 h 2 V 7 C 12,5.3549904 10.64501,4 9,4 H 8 Z"/>
 <path fill="#444" d="m 5.9511719,6.2207031 c -0.2556191,0 -0.5111627,0.0971 -0.7070313,0.2929688 L 0.29296875,11.462891 c -0.39173716,0.391737 -0.39173716,1.022325 0,1.414062 l 2.83007815,2.830078 c 0.3917371,0.391737 1.0223253,0.391737 1.4140625,0 l 4.9492187,-4.951172 c 0.3917372,-0.391737 0.3917372,-1.022325 0,-1.4140621 L 6.6582031,6.5136719 C 6.4623345,6.3178033 6.206791,6.2207031 5.9511719,6.2207031 Z M 6,8 C 6.5522847,8 7,8.4477153 7,9 7,9.5522847 6.5522847,10 6,10 5.4477153,10 5,9.5522847 5,9 5,8.4477153 5.4477153,8 6,8 Z"/>
</svg>
